material/.icons/material/map-marker-check-outline.svg

<svg xmlns="http://www.w3.org/2000/svg" viewBox="0 0 24 24"><path d="M12 4c2.8 0 5 2.2 5 5 0 2.9-2.9 7.2-5 9.9-2.1-2.7-5-7-5-9.9 0-2.8 2.2-5 5-5m0-2C8.1 2 5 5.1 5 9c0 5.2 7 13 7 13s7-7.8 7-13c0-3.9-3.1-7-7-7m-.7 12l4.9-5-1.4-1.4-3.5 3.6-1.6-1.6L8.3 11l3 3z"/></svg>

<?xml version="1.0" encoding="UTF-8"?><!DOCTYPE svg PUBLIC "-//W3C//DTD SVG 1.1//EN" "http://www.w3.org/Graphics/SVG/1.1/DTD/svg11.dtd"><svg xmlns="http://www.w3.org/2000/svg" xmlns:xlink="http://www.w3.org/1999/xlink" version="1.1" id="mdi-map-marker-check-outline" width="24" height="24" viewBox="0 0 24 24"><path d="M12 4C14.8 4 17 6.2 17 9C17 11.9 14.1 16.2 12 18.9C9.9 16.2 7 11.9 7 9C7 6.2 9.2 4 12 4M12 2C8.1 2 5 5.1 5 9C5 14.2 12 22 12 22S19 14.2 19 9C19 5.1 15.9 2 12 2M11.3 14L16.2 9L14.8 7.6L11.3 11.2L9.7 9.6L8.3 11L11.3 14Z" /></svg>
